src/assets/outline/DocumentFilter.svg

<?xml version="1.0" encoding="UTF-8"?>
<svg width="24" height="24" viewBox="0 0 24 24" xmlns="http://www.w3.org/2000/svg">
 <path d="m7.08 16.1c-0.36 0-0.71999-0.09-1.05-0.28-0.67-0.38-1.07-1.0601-1.07-1.8201v-3.57c0-0.26-0.17-0.69994-0.38-0.94994l-2.52-2.65c-0.47-0.46-0.81-1.26-0.81-1.87v-1.55c0-1.21 0.91998-2.17 2.1-2.17h8.9c1.16 0 2.1 0.94001 2.1 2.1v1.48c0 0.78-0.45 1.64-0.89 2.08l-2.93 2.59c-0.23 0.19-0.42 0.65007-0.42 0.99007v2.8999c0 0.69-0.41999 1.4601-0.96999 1.7901l-0.92004 0.5999c-0.36 0.22-0.74995 0.3301-1.14 0.3301zm-3.73-13.35c-0.34 0-0.59998 0.29002-0.59998 0.67002v1.55c0 0.17 0.17001 0.6 0.39001 0.82l2.58 2.71c0.38 0.47 0.75 1.24 0.75 1.93v3.57c0 0.3 0.19006 0.4501 0.31006 0.5101 0.16 0.09 0.41995 0.14 0.63995 0l0.93-0.6001c0.12-0.07 0.26001-0.3499 0.26001-0.5199v-2.9001c0-0.78997 0.39-1.66 0.94-2.13l2.88-2.55c0.18-0.18 0.42-0.66999 0.42-0.98999v-1.48c0-0.33-0.27-0.60001-0.6-0.60001h-8.9v0.01001z"/>
 <path d="m15 22.75h-6c-5.43 0-7.75-2.32-7.75-7.75v-3c0-0.41 0.34-0.75 0.75-0.75s0.75 0.34 0.75 0.75v3c0 4.61 1.64 6.25 6.25 6.25h6c4.61 0 6.25-1.64 6.25-6.25v-6c0-2.9-0.68-4.58-2.21-5.45-0.16-0.09-0.69-0.32998-2.21-0.56998-0.41-0.06-0.69-0.45002-0.62-0.86002s0.46-0.68999 0.86-0.61999c1.31 0.21 2.2 0.44999 2.71 0.73999 2.02 1.15 2.97 3.3 2.97 6.76v6c0 5.43-2.32 7.75-7.75 7.75z"/>
 <path d="m18 13.75h-5c-0.41 0-0.75-0.34-0.75-0.75s0.34-0.75 0.75-0.75h5c0.41 0 0.75 0.34 0.75 0.75s-0.34 0.75-0.75 0.75z"/>
 <path d="m18 17.75h-7c-0.41 0-0.75-0.34-0.75-0.75s0.34-0.75 0.75-0.75h7c0.41 0 0.75 0.34 0.75 0.75s-0.34 0.75-0.75 0.75z"/>
</svg>

<svg width="24" height="24" viewBox="0 0 24 24"  xmlns="http://www.w3.org/2000/svg">
<path d="M7.08002 16.1003C6.72002 16.1003 6.36003 16.0103 6.03003 15.8203C5.36003 15.4403 4.96002 14.7602 4.96002 14.0002V10.4302C4.96002 10.1702 4.79002 9.73026 4.58002 9.48026L2.06 6.83023C1.59 6.37023 1.25 5.57024 1.25 4.96024V3.41025C1.25 2.20025 2.16998 1.24023 3.34998 1.24023H12.25C13.41 1.24023 14.35 2.18024 14.35 3.34024V4.82025C14.35 5.60025 13.9 6.46024 13.46 6.90024L10.53 9.49023C10.3 9.68023 10.11 10.1403 10.11 10.4803V13.3802C10.11 14.0702 9.69001 14.8403 9.14001 15.1703L8.21997 15.7702C7.85997 15.9902 7.47002 16.1003 7.08002 16.1003ZM3.34998 2.75024C3.00998 2.75024 2.75 3.04026 2.75 3.42026V4.97025C2.75 5.14025 2.92001 5.57025 3.14001 5.79025L5.71997 8.50024C6.09997 8.97024 6.46997 9.74024 6.46997 10.4302V14.0002C6.46997 14.3002 6.66003 14.4503 6.78003 14.5103C6.94003 14.6003 7.19998 14.6503 7.41998 14.5103L8.34998 13.9102C8.46998 13.8402 8.60999 13.5603 8.60999 13.3903V10.4902C8.60999 9.70023 8.99999 8.83023 9.54999 8.36023L12.43 5.81024C12.61 5.63024 12.85 5.14025 12.85 4.82025V3.34024C12.85 3.01024 12.58 2.74023 12.25 2.74023H3.34998V2.75024Z" />
<path d="M15 22.75H9C3.57 22.75 1.25 20.43 1.25 15V12C1.25 11.59 1.59 11.25 2 11.25C2.41 11.25 2.75 11.59 2.75 12V15C2.75 19.61 4.39 21.25 9 21.25H15C19.61 21.25 21.25 19.61 21.25 15V8.99999C21.25 6.09999 20.57 4.41998 19.04 3.54998C18.88 3.45998 18.35 3.22 16.83 2.98C16.42 2.92 16.14 2.52998 16.21 2.11998C16.28 1.70998 16.67 1.42999 17.07 1.49999C18.38 1.70999 19.27 1.94998 19.78 2.23998C21.8 3.38998 22.75 5.53999 22.75 8.99999V15C22.75 20.43 20.43 22.75 15 22.75Z" />
<path d="M18 13.75H13C12.59 13.75 12.25 13.41 12.25 13C12.25 12.59 12.59 12.25 13 12.25H18C18.41 12.25 18.75 12.59 18.75 13C18.75 13.41 18.41 13.75 18 13.75Z" />
<path d="M18 17.75H11C10.59 17.75 10.25 17.41 10.25 17C10.25 16.59 10.59 16.25 11 16.25H18C18.41 16.25 18.75 16.59 18.75 17C18.75 17.41 18.41 17.75 18 17.75Z" />
</svg>
